assets/imgs/img/keyVisual_4_1.svg

<svg width="62" height="62" viewBox="0 0 62 62" fill="none" xmlns="http://www.w3.org/2000/svg">
<path d="M13.2 8.82764H8.80005V13.2414H13.2V8.82764Z" fill="black"/>
<path d="M8.7999 13.2412H4.3999V17.655H8.7999V13.2412Z" fill="black"/>
<path d="M4.4 17.6553H0V22.0691H4.4V17.6553Z" fill="black"/>
<path d="M4.4 22.0688H0V26.4826H4.4V22.0688Z" fill="black"/>
<path d="M4.4 26.4829H0V30.8967H4.4V26.4829Z" fill="black"/>
<path d="M17.6 4.41357H13.2V8.82737H17.6V4.41357Z" fill="black"/>
<path d="M22.0001 0H17.6001V4.41379H22.0001V0Z" fill="black"/>
<path d="M26.4 0H22V4.41379H26.4V0Z" fill="black"/>
<path d="M30.7999 0H26.3999V4.41379H30.7999V0Z" fill="black"/>
<path d="M48.4 13.2412H52.8V8.82742H48.4V13.2412Z" fill="black"/>
<path d="M52.8 17.6553H57.2V13.2415H52.8V17.6553Z" fill="black"/>
<path d="M57.2001 22.0688H61.6001V17.6551H57.2001V22.0688Z" fill="black"/>
<path d="M57.2001 26.4829H61.6001V22.0691H57.2001V26.4829Z" fill="black"/>
<path d="M57.2001 30.8965H61.6001V26.4827H57.2001V30.8965Z" fill="black"/>
<path d="M44.0001 8.82764H48.4001V4.41384L44.0001 4.41384V8.82764Z" fill="black"/>
<path d="M39.6 4.41357L44 4.41357V-0.000219345L39.6 -0.000219345V4.41357Z" fill="black"/>
<path d="M35.2001 4.41357L39.6001 4.41357V-0.000219345L35.2001 -0.000219345V4.41357Z" fill="black"/>
<path d="M30.8 4.41357L35.2 4.41357V-0.000219345L30.8 -0.000219345V4.41357Z" fill="black"/>
<path d="M48.4 52.9653H52.8V48.5515H48.4V52.9653Z" fill="black"/>
<path d="M52.8 48.5518H57.2V44.138H52.8V48.5518Z" fill="black"/>
<path d="M57.2001 44.1377H61.6001V39.7239H57.2001V44.1377Z" fill="black"/>
<path d="M57.2001 39.7241H61.6001V35.3103H57.2001V39.7241Z" fill="black"/>
<path d="M57.2001 35.3101H61.6001V30.8963H57.2001V35.3101Z" fill="black"/>
<path d="M44.0001 57.3794H48.4001V52.9656H44.0001V57.3794Z" fill="black"/>
<path d="M39.6 61.793H44V57.3792H39.6V61.793Z" fill="black"/>
<path d="M35.2001 61.793H39.6001V57.3792H35.2001V61.793Z" fill="black"/>
<path d="M30.8 61.793H35.2V57.3792H30.8V61.793Z" fill="black"/>
<path d="M13.2 48.5518H8.80005V52.9656H13.2V48.5518Z" fill="black"/>
<path d="M8.7999 44.1377H4.3999V48.5515H8.7999V44.1377Z" fill="black"/>
<path d="M4.4 39.7241H0V44.1379H4.4V39.7241Z" fill="black"/>
<path d="M4.4 35.3101H0V39.7239H4.4V35.3101Z" fill="black"/>
<path d="M4.4 30.8965H0V35.3103H4.4V30.8965Z" fill="black"/>
<path d="M17.6 52.9653H13.2V57.3791H17.6V52.9653Z" fill="black"/>
<path d="M22.0001 57.3794H17.6001V61.7932H22.0001V57.3794Z" fill="black"/>
<path d="M26.4 57.3794H22V61.7932H26.4V57.3794Z" fill="black"/>
<path d="M30.7999 57.3794H26.3999V61.7932H30.7999V57.3794Z" fill="black"/>
<path d="M57.1999 17.6461V44.1377H52.7911V48.5603H48.3999V52.9653H43.9911V57.3879H17.5999V52.9653H13.1911V48.5603H8.79992V44.1377H4.39111V17.6461H8.79992V13.2412H13.1911V8.81854H17.5999V4.41357H43.9911V8.81854H48.3999V13.2412H52.7911V17.6461H57.1999Z" fill="#00CED4"/>
</svg>

<svg xmlns="http://www.w3.org/2000/svg" width="62" height="62" fill="none" viewBox="0 0 62 62"><path fill="#000" d="M13.2 8.828H8.8v4.413h4.4zm-4.4 4.413H4.4v4.414h4.4zm-4.4 4.414H0v4.414h4.4z"/><path fill="#000" d="M4.4 22.069H0v4.414h4.4zm0 4.414H0v4.414h4.4zM17.6 4.414h-4.4v4.413h4.4zM22 0h-4.4v4.414H22zm4.4 0H22v4.414h4.4zm4.4 0h-4.4v4.414h4.4zm17.6 13.241h4.4V8.827h-4.4zm4.4 4.414h4.4v-4.414h-4.4zm4.4 4.414h4.4v-4.414h-4.4zm0 4.414h4.4v-4.414h-4.4z"/><path fill="#000" d="M57.2 30.897h4.4v-4.414h-4.4zM44 8.828h4.4V4.414H44zm-4.4-4.414H44V0h-4.4zm-4.4 0h4.4V0h-4.4zm-4.4 0h4.4V0h-4.4zm17.6 48.551h4.4v-4.414h-4.4zm4.4-4.413h4.4v-4.414h-4.4zm4.4-4.414h4.4v-4.414h-4.4zm0-4.414h4.4V35.31h-4.4z"/><path fill="#000" d="M57.2 35.31h4.4v-4.414h-4.4zM44 57.38h4.4v-4.414H44zm-4.4 4.413H44v-4.414h-4.4zm-4.4 0h4.4v-4.414h-4.4zm-4.4 0h4.4v-4.414h-4.4zM13.2 48.552H8.8v4.414h4.4zm-4.4-4.414H4.4v4.413h4.4zm-4.4-4.414H0v4.414h4.4z"/><path fill="#000" d="M4.4 35.31H0v4.414h4.4zm0-4.413H0v4.413h4.4zm13.2 22.068h-4.4v4.414h4.4zM22 57.38h-4.4v4.413H22zm4.4 0H22v4.413h4.4zm4.4 0h-4.4v4.413h4.4z"/><path fill="#00ced4" d="M57.2 17.646v26.492h-4.41v4.422H48.4v4.405h-4.41v4.423H17.6v-4.423h-4.41V48.56H8.8v-4.422H4.39V17.646H8.8v-4.405h4.391V8.82H17.6V4.414h26.39v4.405h4.41v4.422h4.391v4.405z"/></svg>
